src/lib/packages/icons/src/assets/line/sign-direction-left.svg

<svg width="24" height="24" viewBox="0 0 24 24" fill="none" xmlns="http://www.w3.org/2000/svg">
<path d="M18.154 4.25H13.75V3C13.75 2.586 13.414 2.25 13 2.25C12.586 2.25 12.25 2.586 12.25 3V4.25H8.207C7.606 4.25 7.04099 4.48394 6.61599 4.90894L3.76199 7.76294C3.07999 8.44494 3.07999 9.55504 3.76199 10.238L6.61599 13.092C7.04099 13.517 7.606 13.751 8.207 13.751H12.25V20.251H9.99999C9.58599 20.251 9.24999 20.587 9.24999 21.001C9.24999 21.415 9.58599 21.751 9.99999 21.751H16C16.414 21.751 16.75 21.415 16.75 21.001C16.75 20.587 16.414 20.251 16 20.251H13.75V13.751H18.154C19.804 13.751 20.75 12.805 20.75 11.155V6.84692C20.75 5.19592 19.804 4.25 18.154 4.25ZM19.25 11.1541C19.25 11.9741 18.974 12.25 18.154 12.25H8.207C8.007 12.25 7.818 12.172 7.677 12.03L4.82299 9.17603C4.72599 9.07803 4.72599 8.92002 4.82299 8.82202L7.677 5.96802C7.819 5.82602 8.007 5.74805 8.207 5.74805H18.154C18.974 5.74805 19.25 6.02399 19.25 6.84399V11.1541Z" fill="currentColor"/>
</svg>

<svg xmlns="http://www.w3.org/2000/svg" width="24" height="24" fill="none"><path fill="currentColor" d="M18.154 4.25H13.75V3a.75.75 0 0 0-1.5 0v1.25H8.207c-.601 0-1.166.234-1.591.659L3.762 7.763a1.753 1.753 0 0 0 0 2.475l2.854 2.854c.425.425.99.659 1.591.659h4.043v6.5H10a.75.75 0 0 0 0 1.5h6a.75.75 0 0 0 0-1.5h-2.25v-6.5h4.404c1.65 0 2.596-.946 2.596-2.596V6.847c0-1.651-.946-2.597-2.596-2.597Zm1.096 6.904c0 .82-.276 1.096-1.096 1.096H8.207a.743.743 0 0 1-.53-.22L4.823 9.176a.252.252 0 0 1 0-.354l2.854-2.854a.744.744 0 0 1 .53-.22h9.947c.82 0 1.096.276 1.096 1.096v4.31Z"/></svg>
